X: 28234
T: Mrs. Galvin's
R: jig
M: 6/8
K: Amajor
A2B|:c2B cAA|eAA cBA|B3 BAB|Ace aed|c2B cAA|
eAA cBA|B3 BAB|1 BAG A2B:|2 BAG Ace||
|:a3 gfe|cee efg|aea gfe|cff f2g|
aea gfe|cee efg|1 a3 aec|BAG Ace:|2 a3 a3|a3 aed||

